app/images/logos/logo_twitter.svg

<?xml version="1.0" encoding="UTF-8"?>
<svg width="24px" height="24px" viewBox="0 0 24 24" version="1.1" xmlns="http://www.w3.org/2000/svg" xmlns:xlink="http://www.w3.org/1999/xlink">
    <!-- Generator: Sketch 52.5 (67469) - http://www.bohemiancoding.com/sketch -->
    <title>Artboard</title>
    <desc>Created with Sketch.</desc>
    <g id="Artboard" stroke="none" stroke-width="1" fill="none" fill-rule="evenodd">
        <g id="Twitter_Logo_Blue">
            <rect id="Rectangle" x="0" y="0" width="24" height="24"></rect>
            <path d="M8.2896,20.1272 C15.8368,20.1272 19.9648,13.8744 19.9648,8.452 C19.9648,8.2744 19.9648,8.0976 19.9528,7.9216 C20.7558651,7.34072868 21.4490844,6.62150352 22,5.7976 C21.2511032,6.12944142 20.4566634,6.34706292 19.6432,6.4432 C20.4997952,5.93038565 21.1408988,5.12381759 21.4472,4.1736 C20.641726,4.65156425 19.7605169,4.98840962 18.8416,5.1696 C17.5696662,3.81711542 15.5485755,3.48609007 13.9116394,4.36214394 C12.2747034,5.23819782 11.42902,7.10346058 11.8488,8.912 C8.54951659,8.74659963 5.47558062,7.18825862 3.392,4.6248 C2.30289821,6.49971578 2.85919031,8.89828758 4.6624,10.1024 C4.00939296,10.083046 3.3706235,9.90689054 2.8,9.5888 C2.8,9.6056 2.8,9.6232 2.8,9.6408 C2.80053451,11.5940744 4.17740119,13.2764281 6.092,13.6632 C5.48789568,13.827952 4.85406447,13.8520354 4.2392,13.7336 C4.77675834,15.4051383 6.31725965,16.5502271 8.0728,16.5832 C6.61978803,17.7251456 4.82484761,18.3450622 2.9768,18.3432 C2.65032286,18.3425732 2.32416325,18.322806 2,18.284 C3.87650876,19.4882212 6.05993072,20.1269735 8.2896,20.124" id="Path" fill="#1DA1F2"></path>
        </g>
    </g>
</svg>

<svg width="24" height="24" viewBox="0 0 24 24" xmlns="http://www.w3.org/2000/svg"><title>Artboard</title><g fill="none" fill-rule="evenodd"><path d="M0 0h24v24H0z"/><path d="M8.29 20.127c7.547 0 11.675-6.253 11.675-11.675 0-.178 0-.354-.012-.53A8.349 8.349 0 0 0 22 5.798a8.19 8.19 0 0 1-2.357.645 4.118 4.118 0 0 0 1.804-2.27 8.223 8.223 0 0 1-2.605.997 4.107 4.107 0 0 0-6.993 3.742 11.65 11.65 0 0 1-8.457-4.287 4.106 4.106 0 0 0 1.27 5.477A4.073 4.073 0 0 1 2.8 9.59v.052a4.105 4.105 0 0 0 3.292 4.022 4.097 4.097 0 0 1-1.853.07 4.108 4.108 0 0 0 3.834 2.85A8.234 8.234 0 0 1 2 18.284a11.617 11.617 0 0 0 6.29 1.84" fill="#1DA1F2"/></g></svg>
